X:180
T:Alcove. JJo8.180, The
B:J.Johnson Choice Collection Vol 8 1758
Z:vmp.Simon Wilson 2013 www.village-music-project.org.uk
M:2/4
L:1/8
Q:1/2=80
K:A
|:e|c2Ae|c2Ae|EAAA|A3B|cAAB|cAAB|cedc|{c}B4:|
|:B|G2Ed|{e}d2cB|cBAa|A2AB|GFEd|d2cB|cAaf|Tf2e>e|
f2Df|e2Ce|dcBA|G/A/B Ec|d2fd|Tg2af|edcB|A4:|

